X: 23
M:6/8
L:1/8
K:F
"Slow and with feeling"B/2c/2|d>ed cAG/2F/2|
fed c/2B/2A/2B/2c/2A/2|d/2c/2d/2e/2f/2d/2 g2 a/2g/2|
f/2e/2d/2e/2f/2d/2 d/2c/2B/2A/2G/2F/2|G2 G G2||
(3d/2e/2f/2|gdB gdB|G2 G G2 (3c/2d/2e/2|fcA fcA|F2 F F2 G/2A/2|
f/2e/2d/2e/2f/2d/2 d/2c/2B/2A/2G/2F/2|G2 G G2||

